icons/sonography.svg

<svg width="48" height="48" viewBox="0 0 48 48" fill="none" xmlns="http://www.w3.org/2000/svg">
<path fill-rule="evenodd" clip-rule="evenodd" d="M39 8H9C8.44771 8 8 8.44772 8 9V39C8 39.5523 8.44772 40 9 40H39C39.5523 40 40 39.5523 40 39V9C40 8.44771 39.5523 8 39 8ZM9 6C7.34315 6 6 7.34315 6 9V39C6 40.6569 7.34315 42 9 42H39C40.6569 42 42 40.6569 42 39V9C42 7.34315 40.6569 6 39 6H9Z" fill="black"/>
<path fill-rule="evenodd" clip-rule="evenodd" d="M10.3022 28.441C9.89853 29.4922 10.4407 30.6738 11.5189 30.998C15.482 32.1899 19.6695 32.8319 24 32.8319C28.3304 32.8319 32.5181 32.1898 36.4811 30.998C37.5594 30.6737 38.1015 29.4921 37.6979 28.441L32.2113 14.154C31.8398 13.1866 30.7921 12.6712 29.7788 12.8888C27.9145 13.2891 25.9814 13.5 24 13.5C22.0186 13.5 20.0856 13.2891 18.2212 12.8888C17.208 12.6712 16.1603 13.1866 15.7888 14.1541L10.3022 28.441ZM33.0002 21.7932C33.0002 23.9809 31.1774 25.7545 28.9288 25.7545C28.7577 25.7545 28.589 25.7442 28.4234 25.7242C28.2703 25.9305 28.1066 26.211 27.9181 26.5339C27.1075 27.9227 25.8399 30.0943 23.0001 30.5C20.7829 30.8205 19.2505 28.9527 18.2325 26.9642C18.1045 26.7141 17.9802 26.473 17.8638 26.2496C17.693 26.3256 17.5102 26.4077 17.3288 26.4891C16.8619 26.6988 16.4046 26.9042 16.1869 26.9888C15.2589 27.3497 14.2059 26.9102 13.835 26.0073C13.4641 25.1044 13.9158 24.08 14.8438 23.7191C14.9764 23.6676 15.2602 23.5399 15.6325 23.3724C15.8838 23.2594 16.1754 23.1283 16.4882 22.9901C16.8419 22.8338 17.2109 22.6743 17.5118 22.5562C17.6574 22.4991 17.8234 22.4371 17.9792 22.39C18.0527 22.3677 18.171 22.3341 18.3074 22.3106C18.3751 22.299 18.4882 22.2825 18.6263 22.2801C18.7336 22.2783 19.0262 22.2792 19.3633 22.4127C19.6439 22.5237 19.8266 22.6768 19.8902 22.7316C19.9741 22.804 20.0353 22.87 20.0703 22.9094C20.1406 22.9886 20.193 23.0608 20.221 23.1005C20.2812 23.1857 20.3362 23.2746 20.3782 23.3445C20.4667 23.492 20.5714 23.6798 20.6807 23.8814C20.8127 24.1248 21.2056 24.9094 21.3953 25.2896C21.446 25.3912 21.5827 25.4106 21.6598 25.3272C21.6988 25.2849 21.7125 25.2251 21.6958 25.17L21.1173 23.2666C20.9632 22.7528 20.8081 22.2373 20.6807 21.8247C20.617 21.6179 20.562 21.4429 20.5186 21.3097C20.488 21.2155 20.47 21.1636 20.4624 21.1417C20.4574 21.1271 20.4569 21.1259 20.4606 21.1346C20.0851 20.2335 20.5316 19.2069 21.4578 18.8416C22.384 18.4763 23.4391 18.9107 23.8146 19.8119L24.6899 22.7844C24.7107 22.8552 24.7802 22.8998 24.8533 22.8896C24.9358 22.8781 24.9883 22.797 24.9684 22.7161C24.8958 22.42 24.8574 22.1109 24.8574 21.7932C24.8574 20.1674 25.5718 19.0552 27.0788 18.3794C28.2523 17.8532 29.6446 17.6938 30.7939 18.2711C32.1043 18.9293 33.0002 20.2594 33.0002 21.7932Z" fill="black"/>
<path fill-rule="evenodd" clip-rule="evenodd" d="M36 12V14C36 14.5523 36.4477 15 37 15C37.5523 15 38 14.5523 38 14V11.5C38 10.6716 37.3284 10 36.5 10L34 10C33.4477 10 33 10.4477 33 11C33 11.5523 33.4477 12 34 12H36Z" fill="black"/>
<path fill-rule="evenodd" clip-rule="evenodd" d="M12 12H14C14.5523 12 15 11.5523 15 11C15 10.4477 14.5523 10 14 10H11.5C10.6716 10 10 10.6716 10 11.5V14C10 14.5523 10.4477 15 11 15C11.5523 15 12 14.5523 12 14V12Z" fill="black"/>
<path fill-rule="evenodd" clip-rule="evenodd" d="M36 36V34C36 33.4477 36.4477 33 37 33C37.5523 33 38 33.4477 38 34V36.5C38 37.3284 37.3284 38 36.5 38H34C33.4477 38 33 37.5523 33 37C33 36.4477 33.4477 36 34 36H36Z" fill="black"/>
<path fill-rule="evenodd" clip-rule="evenodd" d="M12 36H14C14.5523 36 15 36.4477 15 37C15 37.5523 14.5523 38 14 38H11.5C10.6716 38 10 37.3284 10 36.5V34C10 33.4477 10.4477 33 11 33C11.5523 33 12 33.4477 12 34V36Z" fill="black"/>
</svg>

<svg
  xmlns="http://www.w3.org/2000/svg"
  width="24"
  height="24"
  viewBox="0 0 24 24"
  fill="none"
  stroke="currentColor"
  stroke-width="2"
  stroke-linecap="round"
  stroke-linejoin="round"
>
  <path
    fill-rule="evenodd"
    d="M39 8H9a1 1 0 0 0-1 1v30a1 1 0 0 0 1 1h30a1 1 0 0 0 1-1V9a1 1 0 0 0-1-1M9 6a3 3 0 0 0-3 3v30a3 3 0 0 0 3 3h30a3 3 0 0 0 3-3V9a3 3 0 0 0-3-3z"
    clip-rule="evenodd"
  />
  <path
    fill-rule="evenodd"
    d="M10.302 28.441c-.403 1.051.139 2.233 1.217 2.557A43.3 43.3 0 0 0 24 32.832c4.33 0 8.518-.642 12.481-1.834 1.078-.324 1.62-1.506 1.217-2.557L32.21 14.154c-.371-.967-1.419-1.483-2.432-1.265-1.864.4-3.798.611-5.779.611s-3.914-.21-5.779-.611c-1.013-.218-2.06.298-2.432 1.265zM33 21.793c0 2.188-1.823 3.962-4.071 3.962q-.257 0-.506-.03c-.153.205-.316.486-.505.809-.81 1.389-2.078 3.56-4.918 3.966-2.217.32-3.75-1.547-4.767-3.536-.128-.25-.253-.491-.37-.714l-.534.24c-.467.209-.924.414-1.142.499-.928.36-1.981-.079-2.352-.982s.08-1.927 1.009-2.288c.132-.051.416-.18.789-.347.25-.113.542-.244.855-.382a28 28 0 0 1 1.024-.434 6 6 0 0 1 .467-.166 3 3 0 0 1 .328-.08c.068-.011.181-.027.32-.03.107-.002.4 0 .736.133a1.85 1.85 0 0 1 .707.496c.07.08.123.152.151.192.06.085.115.174.157.244.089.147.193.335.303.536.132.244.525 1.028.714 1.409a.162.162 0 0 0 .3-.12l-.578-1.903c-.154-.514-.309-1.03-.436-1.442a35 35 0 0 0-.219-.683q-.007-.021-.001-.007c-.376-.902.07-1.928.997-2.293.926-.366 1.981.069 2.357.97l.875 2.972c.02.071.09.116.163.106a.14.14 0 0 0 .115-.174 4 4 0 0 1-.11-.923c0-1.626.714-2.738 2.22-3.414 1.174-.526 2.567-.685 3.716-.108C32.104 18.93 33 20.26 33 21.793"
    clip-rule="evenodd"
  />
  <path
    fill-rule="evenodd"
    d="M36 12v2a1 1 0 1 0 2 0v-2.5a1.5 1.5 0 0 0-1.5-1.5H34a1 1 0 1 0 0 2z"
    clip-rule="evenodd"
  />
  <path
    fill-rule="evenodd"
    d="M12 12h2a1 1 0 1 0 0-2h-2.5a1.5 1.5 0 0 0-1.5 1.5V14a1 1 0 1 0 2 0z"
    clip-rule="evenodd"
  />
  <path
    fill-rule="evenodd"
    d="M36 36v-2a1 1 0 1 1 2 0v2.5a1.5 1.5 0 0 1-1.5 1.5H34a1 1 0 1 1 0-2z"
    clip-rule="evenodd"
  />
  <path
    fill-rule="evenodd"
    d="M12 36h2a1 1 0 1 1 0 2h-2.5a1.5 1.5 0 0 1-1.5-1.5V34a1 1 0 1 1 2 0z"
    clip-rule="evenodd"
  />
</svg>
